packages/vibrant-icons/assets/icons/ChevronUpCircle/Thin.svg

<svg width="24" height="24" viewBox="0 0 24 24" fill="none" xmlns="http://www.w3.org/2000/svg">
<path d="M17.6491 13.9388C17.7272 13.8606 17.7272 13.734 17.6491 13.6559L12.1409 8.14984C12.0628 8.07177 11.9362 8.07178 11.8581 8.14985L6.35053 13.6557C6.27241 13.7338 6.2724 13.8605 6.35051 13.9386L7.27017 14.8583C7.34827 14.9364 7.47488 14.9364 7.55299 14.8583L12 10.413L16.4467 14.8584C16.5248 14.9365 16.6514 14.9365 16.7295 14.8584L17.6491 13.9388Z" fill="#0C0C0C"/>
<path fill-rule="evenodd" clip-rule="evenodd" d="M12.0001 1.1499C6.00764 1.1499 1.15015 6.0074 1.15015 11.9999C1.15015 17.9924 6.00764 22.8499 12.0001 22.8499C17.9926 22.8499 22.8501 17.9924 22.8501 11.9999C22.8501 6.0074 17.9926 1.1499 12.0001 1.1499ZM12.0001 21.1499C6.95465 21.1499 2.85015 17.0454 2.85015 11.9999C2.85015 6.9544 6.95465 2.8499 12.0001 2.8499C17.0456 2.8499 21.1501 6.9544 21.1501 11.9999C21.1501 17.0454 17.0456 21.1499 12.0001 21.1499Z" fill="#0C0C0C"/>
</svg>

<svg xmlns="http://www.w3.org/2000/svg" width="24" height="24" fill="none"><path fill="#0C0C0C" d="M17.65 13.939a.2.2 0 0 0 0-.283L12.14 8.15a.2.2 0 0 0-.282 0l-5.507 5.506a.2.2 0 0 0 0 .283l.92.92a.2.2 0 0 0 .282 0L12 10.412l4.447 4.445a.2.2 0 0 0 .283 0z"/><path fill="#0C0C0C" fill-rule="evenodd" d="M12 1.15C6.008 1.15 1.15 6.007 1.15 12S6.008 22.85 12 22.85c5.993 0 10.85-4.858 10.85-10.85 0-5.993-4.857-10.85-10.85-10.85m0 20c-5.045 0-9.15-4.105-9.15-9.15 0-5.046 4.105-9.15 9.15-9.15 5.046 0 9.15 4.104 9.15 9.15 0 5.045-4.104 9.15-9.15 9.15" clip-rule="evenodd"/></svg>
